static/images/mobile/copyright/wikipedia-wordmark-ti.svg

<?xml version="1.0" encoding="UTF-8"?>
<svg width="103px" height="18px" viewBox="0 0 103 18" version="1.1" xmlns="http://www.w3.org/2000/svg" xmlns:xlink="http://www.w3.org/1999/xlink">
    <title>ti-wordmark</title>
    <g id="Page-1" stroke="none" stroke-width="1" fill="none" fill-rule="evenodd">
        <path d="M17.8699987,3.62462597 C17.8699987,4.44374895 17.5965289,5.18014344 17.0495894,5.83380943 C16.5125941,6.48744964 15.8164897,7.00458009 14.9612762,7.38520079 C14.1060628,7.76579571 13.2011263,7.95609316 12.246467,7.95609316 C11.987916,7.95609316 11.7243913,7.94365036 11.4558929,7.91876477 C11.187396,7.88575589 10.9238713,7.85261807 10.6653188,7.81935132 L9.99407342,14.4592994 C9.98397441,14.5419505 9.99889488,14.6495195 10.0388348,14.7820063 C10.0885643,14.9060474 10.1830357,14.968068 10.3222489,14.968068 C10.60069,14.968068 10.8791311,14.9556252 11.1575722,14.9307396 C11.4459592,14.9057251 11.7293724,14.8850301 12.0078119,14.8686546 C12.2067005,14.4714907 12.5348654,14.1653399 12.9923065,13.9502019 C13.4596887,13.7350769 13.9668504,13.5861502 14.5137916,13.5034217 C15.0607295,13.4123894 15.5579453,13.3668732 16.0054389,13.3668732 C16.1446586,13.3668732 16.3137136,13.375061 16.5126038,13.3914365 C16.7214367,13.4080698 16.8904909,13.4412077 17.0197663,13.4908499 C16.8009892,13.6398025 16.6567957,13.8342518 16.5871858,14.074198 C16.527504,14.3141441 16.497663,14.5458187 16.497663,14.7692218 C16.497663,15.2243059 16.587163,15.6255958 16.7661631,15.9730916 C16.9551042,16.3123351 17.2932109,16.6019364 17.7804832,16.8418955 C17.3329896,17.0900939 16.8506886,17.2638482 16.3335802,17.3631585 C15.8264177,17.462443 15.3093117,17.5120853 14.7822623,17.5120853 C13.9867145,17.5120853 13.3403322,17.4003902 12.8431156,17.177 C12.3459007,16.953597 12.0475702,16.4778308 11.9481243,15.7497014 C11.2520191,15.8077248 10.4912762,15.8780557 9.66589551,15.9606939 C8.85045912,16.043345 8.18418836,16.0846706 7.66708322,16.0846706 C7.08036659,16.0846706 6.64778692,16.0019228 6.36934419,15.8364271 C6.09090309,15.6709443 5.95168254,15.3317072 5.95168254,14.8187157 C5.95168254,14.6780412 5.9616268,14.4753267 5.98151534,14.2105723 C6.00140387,13.9458051 6.01632434,13.7430906 6.02627676,13.6024289 L6.62293521,8.17890307 C6.16549405,8.41058412 5.68319385,8.60089447 5.17603461,8.74983413 C4.66887375,8.89876089 4.14679502,8.97322427 3.60979842,8.97322427 C2.39658793,8.97322427 1.49165232,8.67535785 0.894991588,8.07962501 C0.298330529,7.47562706 0,6.68545131 0,5.70909777 C0,4.76585626 0.263525188,3.96740251 0.790575564,3.31373651 C1.3176261,2.6518183 2.01373048,2.11815118 2.8788887,1.71273513 C3.74404529,1.2990153 4.68875902,1.00113599 5.71302991,0.819097194 C6.73729591,0.628806185 7.74664632,0.53366068 8.74108114,0.53366068 C9.61618477,0.53366068 10.4713982,0.446780288 11.3067215,0.273019504 C12.1519924,0.0910065013 12.9972624,0 13.8425316,0 C15.0955189,0 16.0800103,0.355773786 16.7960057,1.06732136 C17.5119978,1.77062961 17.8699987,2.62287107 17.8699987,3.62404573 L17.8699987,3.62462597 Z M13.6188027,2.94201918 C13.6188027,2.52829935 13.499456,2.13113553 13.2607919,1.75052772 C13.0320738,1.3616548 12.6243556,1.16721834 12.0376374,1.16721834 C11.9083537,1.16721834 11.7790766,1.17547056 11.6498061,1.19197499 C11.5304749,1.20835049 11.4061707,1.22485493 11.2768936,1.24148831 L10.7548172,6.91339307 C11.1028681,6.96303533 11.4459486,6.98785645 11.7840586,6.98785645 C12.1718866,6.98785645 12.4851334,6.82238012 12.7237991,6.49142746 C12.9724058,6.1521968 13.1563763,5.74676142 13.2757108,5.27512132 C13.4049781,4.8035199 13.4944773,4.34844872 13.5442084,3.90990775 C13.5939379,3.47139258 13.6188027,3.14871148 13.6188027,2.94186445 L13.6188027,2.94201918 Z M7.26435019,1.44025718 C6.43897116,1.50653282 5.80750451,1.78371066 5.36995026,2.27179073 C4.93239926,2.75996105 4.63406963,3.33087921 4.47496136,3.9845452 C4.3258055,4.6299203 4.25122757,5.23393114 4.25122757,5.79657774 C4.25122757,5.99515965 4.27609231,6.23924481 4.32582179,6.52883323 C4.38548739,6.81015652 4.49487514,7.0625068 4.65398504,7.28588405 C4.82304246,7.50928709 5.07165157,7.62098861 5.39981238,7.62098861 C5.59869772,7.62098861 5.82244535,7.57966304 6.07105528,7.49701191 C6.32960947,7.40597962 6.54341202,7.32737724 6.71246293,7.26120476 L7.26435019,1.44025718 Z M40.2940687,17.5278096 C39.8273088,17.6730358 39.4178062,17.7720624 39.0655462,17.8248895 C38.7132846,17.8842023 38.2861681,17.9138587 37.7841969,17.9138587 C37.088481,17.9138587 36.5600902,17.8280356 36.1990245,17.6563895 C35.8467629,17.4913451 35.6089866,17.1315484 35.4856956,16.5769993 L31.8794256,16.8245658 C31.7032972,16.8323023 31.5271673,16.8421663 31.3510356,16.8541578 C31.174904,16.8673097 30.998774,16.8738857 30.8226457,16.8738857 C30.4263508,16.8738857 30.1489448,16.8012662 29.9904278,16.6560272 C29.831906,16.5107881 29.752645,16.2071129 29.752645,15.7450015 C29.752645,14.7679259 29.7834633,13.7941512 29.8450998,12.8236774 C29.9067526,11.8532293 29.9375791,10.8794739 29.9375791,9.90241122 C29.9375791,9.18281773 29.8935506,8.63156951 29.8054938,8.24866656 C29.7262328,7.85914893 29.563313,7.59177059 29.3167343,7.44653154 C29.0701507,7.30127959 28.6914704,7.22865362 28.1806934,7.22865362 C27.8988838,7.22865362 27.6258815,7.25831003 27.3616865,7.31762286 C27.1062973,7.37693568 26.8729246,7.48255763 26.6615686,7.63448872 C26.274081,7.91837794 25.9614499,8.46963261 25.7236752,9.28825273 C25.4858989,10.1068728 25.3670108,11.3678183 25.3670108,13.0710892 C25.3670108,13.9755324 25.3890331,14.6588161 25.4330779,15.1209404 C25.4771063,15.5764629 25.5607676,15.8900472 25.6840619,16.0616933 C25.7457147,16.147568 25.8293768,16.2135857 25.9350483,16.2597466 C26.0495255,16.3059074 26.16401,16.3455568 26.2785018,16.3786946 L26.2785018,16.6361831 L23.5572862,16.9431463 C23.4163887,16.9628743 23.2666782,16.9727383 23.1081547,16.9727383 C22.817541,16.9727383 22.6017814,16.9100085 22.4608758,16.784549 C22.0205492,16.4214385 21.8003859,15.4179622 21.8003859,13.7741202 C21.8003859,13.160168 21.8400163,12.5065987 21.9192773,11.8134124 C21.9985382,11.1136113 22.1702654,10.4369229 22.4344587,9.78334718 C22.7074594,9.12316967 23.116962,8.54880878 23.6629666,8.06026453 C23.3635456,8.08669742 23.0597202,8.11635383 22.7514902,8.14923377 C22.4520693,8.18224264 22.1482446,8.19874708 21.8400163,8.19874708 C21.5582084,8.19874708 21.3292394,8.15580975 21.1531094,8.0699351 C20.9769778,7.97748446 20.8933156,7.81244008 20.9021229,7.57480197 L21.0606448,4.61388649 C21.0694407,4.45545678 21.0474184,4.28381708 20.9945777,4.09896738 C20.950533,3.9075159 20.8008225,3.7886775 20.5454463,3.74245218 L20.5454463,3.49486627 L23.6629519,2.97004449 C23.8390836,2.93703562 24.0064079,2.92053118 24.1649248,2.92053118 C24.4203141,2.92053118 24.6316701,2.97333249 24.7989928,3.0789351 C24.9663171,3.17796173 25.045578,3.329809 25.0367756,3.53447692 L24.9046903,7.24797542 C25.5827932,6.92448844 26.318138,6.70993075 27.1107245,6.60430235 C27.9033111,6.49212375 28.6914948,6.43603445 29.4752757,6.43603445 C30.5672833,6.43603445 31.4039015,6.5812735 31.9851305,6.8717516 C32.5663627,7.16222971 32.962656,7.58144243 33.1740103,8.12938976 C33.3941736,8.67074821 33.5042553,9.32432395 33.5042553,10.090117 C33.5042553,10.6116701 33.486639,11.2091307 33.4514065,11.8824989 C33.4249862,12.55588 33.3941679,13.2259666 33.3589517,13.8927588 C33.3237192,14.5529363 33.3061029,15.1371934 33.3061029,15.6455301 C33.3061029,15.8435833 33.5130561,15.9426099 33.9269624,15.9426099 C34.076672,15.9426099 34.3188512,15.9293935 34.6534998,15.9029606 C34.9881468,15.8765277 35.2919722,15.8500948 35.5649761,15.8236619 C35.7322988,15.5464003 36.0141068,15.3252473 36.4104001,15.1602029 C36.815499,14.9951585 37.2470191,14.8763266 37.7049604,14.803707 C38.171704,14.7312422 38.5856103,14.6950098 38.9466792,14.6950098 C39.3429709,14.6950098 39.7040373,14.7280187 40.0298786,14.7940365 C39.9241974,14.9788991 39.8185194,15.1835605 39.7128446,15.4080209 C39.6159756,15.6324812 39.5675411,15.8470389 39.5675411,16.051694 C39.5675411,16.3553885 39.6247797,16.6194595 39.7392568,16.843907 C39.8625462,17.0617655 40.0474835,17.2895268 40.2940687,17.5271907 L40.2940687,17.5278096 Z M62.7467987,7.46380318 C62.4427786,7.59979717 62.0881128,7.70934537 61.6827793,7.79244779 C61.2774474,7.86800717 60.8974502,7.90578686 60.5427876,7.90578686 C58.3539999,7.90578686 57.2748043,7.08229278 57.3052006,5.43530462 L54.0980182,5.56005496 L52.3196242,14.7280638 C52.2790978,14.9547033 52.2334975,15.2115729 52.1828233,15.4986728 C52.1321654,15.7782038 52.1068364,16.0312955 52.1068364,16.2579479 C52.1068364,16.6810288 52.3044341,17.0058954 52.6996295,17.2325478 L52.6996295,17.5271907 L50.3588444,17.7198284 C50.1967227,17.7275649 50.0092566,17.742651 49.796446,17.7650867 C49.5937817,17.7801728 49.411383,17.7877158 49.2492499,17.7877158 C48.6615185,17.7877158 48.2815197,17.6857236 48.1092533,17.481739 C47.9471317,17.2777545 47.8660708,16.9831116 47.8660708,16.5978103 C47.8660708,16.4240366 47.886334,16.2313796 47.9268603,16.0198391 C47.9673867,15.8007427 48.0028554,15.6080921 48.0332664,15.4418872 L49.8268579,5.74126209 C49.5633943,5.74899854 49.1935295,5.76408463 48.7172634,5.78652035 C48.2511338,5.80160644 47.8255355,5.82049628 47.4404684,5.84318988 C47.0655394,5.85827597 46.8780749,5.87716582 46.8780749,5.89985942 C46.938897,6.33805224 46.8122302,6.76491116 46.4980744,7.18043616 C46.1839415,7.59596117 45.7532766,7.93971122 45.2060796,8.2116863 C44.6690175,8.48366138 44.0964876,8.61964893 43.4884897,8.61964893 C43.1743584,8.61964893 42.8298258,8.58186924 42.4548919,8.50630986 C42.0900945,8.43075048 41.7607634,8.34387009 41.4668985,8.24566868 C41.7404986,8.07945094 41.9583643,7.8641325 42.1204958,7.59971335 C42.2826175,7.32773827 42.3636783,7.06331268 42.3636783,6.80643658 C42.3636783,6.56467235 42.3079465,6.30024676 42.1964827,6.0131598 C42.0951505,5.71851691 41.9431523,5.47298116 41.740488,5.27655256 L62.2299876,4.34728825 C62.138787,4.52860497 62.0779894,4.74014544 62.0475946,4.98190967 C62.0171999,5.223661 62.0020025,5.43897944 62.0020025,5.62786499 C62.0020025,5.87717226 62.0526686,6.20203246 62.1540007,6.6024456 C62.2654645,7.00287162 62.4630638,7.28996503 62.7467987,7.46372581 L62.7467987,7.46380318 Z M85.4488367,9.33393649 C85.1529715,9.50014134 84.8141587,9.61346107 84.4323982,9.67389568 C84.0506377,9.72676145 83.6831934,9.75319434 83.3300652,9.75319434 C82.2993114,9.75319434 81.5357897,9.50010266 81.0394999,8.99391929 C80.5527553,8.48017998 80.309383,7.84555856 80.309383,7.09005503 L78.0188201,7.09005503 C77.6084273,7.64157402 77.0644181,8.08731634 76.3867925,8.42728197 C75.7091685,8.76726049 74.9695072,9.02035862 74.1678087,9.18657636 C73.3756554,9.35278121 72.5978183,9.45099551 71.8342973,9.48121926 C72.1110737,10.3349371 72.4928342,11.1622091 72.9795788,11.9630354 C73.4663234,12.7638617 74.0437367,13.5193588 74.7118188,14.2295267 L80.1089584,14.2295267 C80.0612324,14.3881885 80.0182872,14.5543998 79.9801227,14.7281605 C79.9514872,14.8943783 79.9371694,15.0605896 79.9371694,15.2267944 C79.9371694,15.5365492 79.999205,15.910523 80.1232762,16.3487158 C80.2473474,16.7793527 80.4573156,17.1117753 80.7531807,17.3459836 C80.5145802,17.5348562 80.1948554,17.6746217 79.7940061,17.7652801 C79.3931585,17.8559256 79.030486,17.9012483 78.7059885,17.9012483 C77.7515865,17.9012483 76.9928373,17.6368227 76.4297409,17.1079715 C75.8761882,16.5791203 75.5994118,15.9520549 75.5994118,15.2267751 L69.1428852,15.2267751 C69.0379044,15.9520549 68.7086359,16.5791203 68.1550799,17.1079715 C67.6015255,17.6368227 66.8284601,17.9012483 65.8358838,17.9012483 C65.5877381,17.9012483 65.2298374,17.8785547 64.7621816,17.8331675 C64.3040677,17.7803017 63.9747992,17.6783094 63.7743762,17.5271907 C63.9843444,17.4289377 64.1418206,17.251399 64.2468047,16.9945744 C64.3613307,16.7376983 64.4376841,16.4694948 64.4758649,16.1899638 C64.5140456,15.9028768 64.533136,15.6837804 64.533136,15.5326745 C64.533136,15.3362459 64.5140456,15.1473733 64.4758649,14.9660565 C64.4376841,14.7771839 64.4090485,14.5883048 64.3899581,14.3994192 L70.1736317,14.3994192 C69.2669491,13.3643847 68.5320596,12.2991328 67.9689633,11.2036636 C67.4058669,10.1006257 67.1243187,8.90693574 67.1243187,7.62259392 C67.1243187,6.7915439 67.3820072,6.07759158 67.8973841,5.48073696 C68.4223046,4.88389523 69.0999294,4.3966017 69.9302586,4.01885638 C70.7605877,3.64109817 71.6529533,3.3615607 72.6073554,3.18024398 C73.5713009,2.99892726 74.4970706,2.9082689 75.3846645,2.9082689 C76.4822265,2.9082689 77.2982395,3.07825171 77.8327035,3.41821734 C78.3671692,3.75819587 78.634402,4.37771186 78.634402,5.27676532 C78.634402,5.65451064 78.5675938,6.00203865 78.4339774,6.31934936 L84.5326032,6.31934936 C84.4753483,6.57621257 84.4467209,6.84063816 84.4467209,7.11262613 C84.4467209,7.32416661 84.4753483,7.58103626 84.5326032,7.8832351 C84.5994195,8.18543393 84.7044036,8.47252089 84.8475555,8.74449597 C85.0002623,9.00892801 85.2006869,9.20536305 85.4488367,9.33380111 L85.4488367,9.33393649 Z M74.7690826,5.06157581 C74.7690826,4.79714378 74.6879566,4.52138428 74.5257046,4.23429732 C74.3634526,3.93965442 74.0819044,3.79233297 73.6810601,3.79233297 C73.2802108,3.79233297 72.9366262,3.89810321 72.6503063,4.10964368 C72.3639847,4.32118416 72.130156,4.58560975 71.9488201,4.90292046 C71.7770278,5.22023117 71.648184,5.54509782 71.5622887,5.8775204 C71.4763982,6.20994299 71.433453,6.49702995 71.433453,6.73878128 C71.433453,7.32052403 71.490716,7.90226033 71.605242,8.48399018 C72.5978199,8.22712698 73.3708853,7.80026806 73.9244381,7.20341344 C74.487536,6.59901577 74.7690826,5.88506989 74.7690826,5.06157581 L74.7690826,5.06157581 Z M102.978974,2.85072901 C102.978974,3.70653569 102.751165,4.41298365 102.295546,4.97007289 C101.849833,5.52714924 101.255549,5.96716013 100.512695,6.29010556 C99.76984,6.60497929 98.9526998,6.8270091 98.0612749,6.95619501 C97.1797502,7.08530355 96.303179,7.15796821 95.4315612,7.17418898 C95.6692772,8.12686896 96.0109918,9.075526 96.4567051,10.0201601 C96.9123219,10.9647812 97.4125104,11.869031 97.9572705,12.7329094 L92.2075712,14.4162847 C92.2670088,14.5131193 92.3066311,14.6422923 92.3264382,14.8038037 C92.3462616,14.9652893 92.3561733,15.0904329 92.3561733,15.1792346 C92.3561733,15.6878807 92.1382692,16.1157905 91.7024611,16.4629639 C91.2765565,16.8181961 90.7615095,17.0846268 90.1573199,17.2622558 C89.553132,17.4479436 88.9885624,17.5407875 88.463611,17.5407875 C88.3051379,17.5407875 88.1219012,17.5165466 87.9139007,17.4680648 C87.7158037,17.4277063 87.5523749,17.3671686 87.4235677,17.2864515 C87.542473,17.0603923 87.626662,16.8101051 87.6761814,16.5355899 C87.7356027,16.2610876 87.7653133,16.0067709 87.7653133,15.77264 C87.7653133,15.4577663 87.7306346,15.1388503 87.6612772,14.8158919 C87.6018559,14.4848748 87.5226194,14.1700011 87.4235677,13.8712708 C87.7801393,13.709798 88.2010905,13.568511 88.6864212,13.4474097 C89.1717535,13.3183012 89.6125142,13.2537469 90.0087032,13.2537469 C90.2563212,13.2537469 90.5534634,13.2860466 90.9001298,13.350646 C91.2467946,13.4152454 91.5092703,13.528275 91.6875569,13.6897348 L94.1538377,12.9994303 C93.6883157,12.313168 93.2277455,11.530026 92.772127,10.6500042 C92.3165086,9.76189785 91.9401283,8.85764163 91.6429861,7.93723555 C91.3458423,7.01684237 91.1972704,6.1731497 91.1972704,5.40615753 C91.1972704,4.46960805 91.4349856,3.66627388 91.910416,2.99615503 C92.3858415,2.31796447 93.0197434,1.76088167 93.8121214,1.32490664 C94.6144063,0.880859895 95.5058329,0.553878616 96.4864011,0.343962798 C97.4669726,0.13404698 98.4623994,0.0290890716 99.4726815,0.0290890716 C100.45325,0.0290890716 101.280295,0.299555545 101.953818,0.840488493 C102.637245,1.37334974 102.978974,2.04346215 102.978974,2.85082572 L102.978974,2.85072901 Z M99.3241308,2.20887401 C99.3241308,1.92628709 99.2498469,1.65985002 99.1012937,1.4095628 C98.9527242,1.15121677 98.670439,1.02204376 98.2544339,1.02204376 C97.6601536,1.02204376 97.1599635,1.20773802 96.7538677,1.57912655 C96.3576803,1.94244338 96.0407294,2.40263997 95.803015,2.95971632 C95.5752057,3.50873387 95.4167303,4.07793067 95.3275886,4.66730672 C95.2483439,5.25669566 95.2334805,5.77744936 95.2829982,6.2295678 C95.9268084,6.05193879 96.5557593,5.75725076 97.1698508,5.34550372 C97.793849,4.93374379 98.3088953,4.45335505 98.7149895,3.9043375 C99.1210837,3.35533286 99.3241308,2.79017836 99.3241308,2.20887401 L99.3241308,2.20887401 Z" id="ti-wordmark" fill="#000000" fill-rule="nonzero"></path>
    </g>
</svg>

<svg xmlns="http://www.w3.org/2000/svg" width="103" height="18"><path fill="#000" fill-rule="nonzero" d="M17.87 3.625c0 .819-.273 1.555-.82 2.209-.537.653-1.234 1.17-2.089 1.551-.855.38-1.76.571-2.715.571-.258 0-.522-.012-.79-.037-.269-.033-.532-.066-.79-.1l-.672 6.64c-.01.083.005.19.045.323.05.124.144.186.283.186.279 0 .557-.012.836-.037.288-.025.571-.046.85-.062.199-.398.527-.704.984-.919a5.635 5.635 0 0 1 1.522-.447 9.156 9.156 0 0 1 1.491-.136c.14 0 .309.008.508.024.208.017.377.05.507.1a1.043 1.043 0 0 0-.433.583c-.06.24-.09.472-.09.695 0 .455.09.857.27 1.204.188.34.526.629 1.013.869-.447.248-.93.422-1.446.521-.508.1-1.025.15-1.552.15-.795 0-1.442-.113-1.939-.336-.497-.223-.795-.7-.895-1.427-.696.058-1.457.128-2.282.21-.816.083-1.482.125-1.999.125-.587 0-1.02-.083-1.298-.249-.278-.165-.417-.504-.417-1.017 0-.141.01-.344.03-.608l.044-.609.597-5.423c-.458.232-.94.422-1.447.57a5.53 5.53 0 0 1-1.566.224c-1.213 0-2.118-.298-2.715-.893C.298 7.476 0 6.685 0 5.71c0-.944.264-1.743.79-2.396.528-.662 1.224-1.196 2.089-1.601.865-.414 1.81-.712 2.834-.894A16.553 16.553 0 0 1 8.741.534c.875 0 1.73-.087 2.566-.261C12.152.091 12.997 0 13.843 0c1.253 0 2.237.356 2.953 1.067a3.451 3.451 0 0 1 1.074 2.557Zm-4.251-.683c0-.414-.12-.81-.358-1.191-.229-.39-.637-.584-1.223-.584-.13 0-.259.008-.388.025l-.373.05-.522 5.671c.348.05.69.075 1.03.075.387 0 .7-.166.939-.497.248-.339.432-.744.552-1.216.129-.471.218-.927.268-1.365.05-.439.075-.761.075-.968ZM7.264 1.44c-.825.067-1.456.344-1.894.832a3.91 3.91 0 0 0-.895 1.713 8.07 8.07 0 0 0-.224 1.812c0 .198.025.442.075.732.06.281.169.534.328.757.169.223.418.335.746.335.199 0 .422-.041.671-.124.259-.091.472-.17.641-.236l.552-5.82Zm33.03 16.088a8.425 8.425 0 0 1-1.228.297c-.353.06-.78.089-1.282.089-.696 0-1.224-.086-1.585-.258-.352-.165-.59-.524-.713-1.079l-3.607.248c-.176.007-.352.017-.528.03-.176.012-.352.019-.528.019-.397 0-.674-.073-.833-.218-.158-.145-.237-.449-.237-.911 0-.977.03-1.95.092-2.921.062-.97.093-1.945.093-2.922 0-.72-.044-1.27-.133-1.653-.079-.39-.242-.657-.488-.802-.247-.146-.626-.218-1.136-.218-.282 0-.555.03-.82.089a1.94 1.94 0 0 0-.7.316c-.387.284-.7.836-.937 1.654-.238.819-.357 2.08-.357 3.783 0 .905.022 1.588.066 2.05.044.455.128.769.251.94a.594.594 0 0 0 .251.199c.115.046.229.086.344.119v.257l-2.722.307c-.14.02-.29.03-.449.03-.29 0-.506-.063-.647-.188-.44-.364-.66-1.367-.66-3.01 0-.615.039-1.268.118-1.962.08-.7.251-1.376.515-2.03a4.697 4.697 0 0 1 1.229-1.723c-.3.027-.603.056-.912.09-.299.032-.603.049-.911.049-.282 0-.51-.043-.687-.13-.176-.092-.26-.257-.25-.494l.158-2.961a1.562 1.562 0 0 0-.066-.515c-.044-.191-.194-.31-.45-.357v-.247l3.118-.525c.176-.033.343-.05.502-.05.255 0 .467.053.634.159.167.099.247.25.238.455l-.132 3.714a7.341 7.341 0 0 1 2.206-.644c.792-.112 1.58-.168 2.364-.168 1.092 0 1.929.145 2.51.436.581.29.978.71 1.189 1.257.22.542.33 1.195.33 1.961 0 .522-.017 1.12-.053 1.792-.026.674-.057 1.344-.092 2.01-.035.66-.053 1.245-.053 1.754 0 .198.207.297.621.297.15 0 .392-.014.726-.04.335-.026.639-.053.912-.08.167-.277.45-.498.845-.663a5.845 5.845 0 0 1 1.295-.356c.467-.073.88-.109 1.242-.109.396 0 .757.033 1.083.099-.106.185-.211.39-.317.614a1.624 1.624 0 0 0-.145.644c0 .303.057.567.171.792.124.218.308.446.555.683ZM62.747 7.464a5.14 5.14 0 0 1-1.064.328 6.238 6.238 0 0 1-1.14.114c-2.189 0-3.268-.824-3.238-2.47l-3.207.124-1.778 9.168-.137.77c-.05.28-.076.533-.076.76 0 .423.197.748.593.975v.294l-2.341.193c-.162.008-.35.023-.563.045a7.44 7.44 0 0 1-.547.023c-.587 0-.967-.102-1.14-.306-.162-.204-.243-.499-.243-.884 0-.174.02-.367.06-.578l.107-.578 1.794-9.7c-.264.007-.633.022-1.11.045-.466.015-.891.033-1.277.056-.374.015-.562.034-.562.057.06.438-.066.865-.38 1.28-.314.416-.745.76-1.292 1.032a3.75 3.75 0 0 1-1.718.408c-.314 0-.658-.038-1.033-.114a8.692 8.692 0 0 1-.988-.26c.273-.167.491-.382.653-.646.163-.272.244-.537.244-.794 0-.241-.056-.506-.168-.793a1.84 1.84 0 0 0-.456-.736l20.49-.93a1.944 1.944 0 0 0-.182.635 5.24 5.24 0 0 0-.046.646c0 .25.05.574.152.974.111.4.31.688.593.862Zm22.702 1.87c-.296.166-.635.28-1.017.34a8.04 8.04 0 0 1-1.102.08c-1.03 0-1.794-.254-2.29-.76-.487-.514-.73-1.148-.73-1.904h-2.291c-.41.552-.955.997-1.632 1.337a8.997 8.997 0 0 1-2.22.76c-.791.166-1.57.264-2.333.294a11.74 11.74 0 0 0 1.146 2.482c.486.8 1.064 1.556 1.732 2.267h5.397c-.048.158-.09.324-.129.498a2.932 2.932 0 0 0-.043.499c0 .31.062.684.186 1.122.124.43.334.763.63.997-.238.189-.558.329-.959.42-.4.09-.764.135-1.088.135-.954 0-1.713-.264-2.276-.793-.554-.529-.83-1.156-.83-1.881h-6.457c-.105.725-.434 1.352-.988 1.881-.553.529-1.327.793-2.32.793-.247 0-.605-.022-1.073-.068-.458-.053-.787-.155-.988-.306.21-.098.368-.276.473-.532.114-.257.19-.526.229-.805.038-.287.057-.506.057-.657 0-.197-.019-.386-.057-.567a5.804 5.804 0 0 1-.086-.567h5.784c-.907-1.035-1.642-2.1-2.205-3.195a7.762 7.762 0 0 1-.845-3.581c0-.831.258-1.545.773-2.142.525-.597 1.203-1.084 2.033-1.462.83-.378 1.723-.657 2.677-.839.964-.181 1.89-.272 2.778-.272 1.097 0 1.913.17 2.448.51.534.34.801.96.801 1.859 0 .378-.066.725-.2 1.042h6.099a3.635 3.635 0 0 0-.086.794c0 .211.028.468.086.77.066.302.171.59.315.861.152.265.353.461.6.59Zm-10.68-4.272c0-.265-.081-.54-.243-.828-.163-.294-.444-.442-.845-.442-.4 0-.744.106-1.03.318-.287.211-.52.476-.702.793-.172.317-.3.642-.387.975a3.52 3.52 0 0 0-.129.86c0 .583.058 1.164.172 1.746.993-.257 1.766-.684 2.32-1.28a3.038 3.038 0 0 0 .844-2.142Zm28.21-2.211c0 .856-.228 1.562-.683 2.12-.446.556-1.04.996-1.783 1.32a9.894 9.894 0 0 1-2.452.665c-.881.13-1.758.202-2.63.218.238.953.58 1.902 1.026 2.846.455.945.956 1.849 1.5 2.713l-5.75 1.683c.06.097.1.226.12.388.02.161.03.286.03.375 0 .509-.219.937-.655 1.284a4.25 4.25 0 0 1-1.545.8 5.784 5.784 0 0 1-1.693.278 2.46 2.46 0 0 1-.55-.073c-.198-.04-.362-.1-.49-.182a2.59 2.59 0 0 0 .252-.75c.06-.275.09-.53.09-.763 0-.315-.035-.634-.105-.957a6.836 6.836 0 0 0-.237-.945 7.45 7.45 0 0 1 1.262-.424c.486-.129.927-.193 1.323-.193.247 0 .544.032.891.097.347.064.61.177.788.339l2.466-.69a23.169 23.169 0 0 1-1.382-2.35 18.161 18.161 0 0 1-1.129-2.713c-.297-.92-.446-1.764-.446-2.53 0-.937.238-1.74.713-2.41.476-.679 1.11-1.236 1.902-1.672a9.666 9.666 0 0 1 2.674-.981c.981-.21 1.976-.315 2.987-.315.98 0 1.807.27 2.48.811.684.533 1.026 1.203 1.026 2.01Zm-3.655-.642a1.54 1.54 0 0 0-.223-.8c-.148-.258-.43-.387-.847-.387-.594 0-1.094.186-1.5.557a3.938 3.938 0 0 0-.951 1.38 7.28 7.28 0 0 0-.475 1.708c-.08.59-.095 1.11-.045 1.563a6.481 6.481 0 0 0 1.887-.884 6.02 6.02 0 0 0 1.545-1.442c.406-.549.61-1.114.61-1.695Z"/></svg>
